assets/drawable/reservation.svg

<svg height="512" width="512" xmlns="http://www.w3.org/2000/svg"><g fill="#fff"><path d="m406 180h-15v-32.58c17.459-6.192 30-22.865 30-42.42v-60c0-8.284-6.716-15-15-15h-60c-8.284 0-15 6.716-15 15v60c0 19.555 12.541 36.228 30 42.42v32.58h-60v-45c0-11.517-4.354-22.032-11.495-30 7.141-7.968 11.495-18.483 11.495-30 0-6.178-1.765-17.434-17.025-43.74-7.708-13.288-15.313-24.322-15.633-24.785-2.801-4.055-7.414-6.475-12.342-6.475s-9.541 2.42-12.342 6.475c-.32.463-7.925 11.497-15.633 24.785-15.26 26.306-17.025 37.562-17.025 43.74 0 11.517 4.354 22.032 11.495 30-7.141 7.968-11.495 18.483-11.495 30v45h-61v-32.58c17.459-6.192 30-22.865 30-42.42v-60c0-8.284-6.716-15-15-15h-60c-8.284 0-15 6.716-15 15v60c0 19.555 12.541 36.228 30 42.42v32.58h-15c-24.813 0-45 20.187-45 45s20.187 45 45 45h136v212h-15c-8.284 0-15 6.716-15 15s6.716 15 15 15h60c8.284 0 15-6.716 15-15s-6.716-15-15-15h-15v-212h135c24.813 0 45-20.187 45-45s-20.187-45-45-45zm-45-120h30v45c0 8.271-6.729 15-15 15s-15-6.729-15-15zm-105-17.194c8.635 14.55 14.872 27.615 15 32.206-.006 8.265-6.733 14.988-15 14.988-8.271 0-15-6.729-15-14.982.122-4.585 6.361-17.656 15-32.212zm-15 92.194c0-8.271 6.729-15 15-15s15 6.729 15 15v45h-30zm-121-75h30v45c0 8.271-6.729 15-15 15s-15-6.729-15-15zm286 180h-301c-8.271 0-15-6.729-15-15s6.729-15 15-15h301c8.271 0 15 6.729 15 15s-6.729 15-15 15z"/><path d="m165 300h-135v-165c0-8.284-6.716-15-15-15s-15 6.716-15 15v362c0 8.284 6.716 15 15 15s15-6.716 15-15v-107h120v107c0 8.284 6.716 15 15 15s15-6.716 15-15v-109.58c17.459-6.192 30-22.865 30-42.42 0-24.813-20.187-45-45-45zm0 60h-135v-30h135c8.271 0 15 6.729 15 15s-6.729 15-15 15z"/><path d="m497 120c-8.284 0-15 6.716-15 15v165h-136c-24.813 0-45 20.187-45 45 0 19.555 12.541 36.228 30 42.42v109.58c0 8.284 6.716 15 15 15s15-6.716 15-15v-107h121v107c0 8.284 6.716 15 15 15s15-6.716 15-15c0-15.835 0-336.78 0-362 0-8.284-6.716-15-15-15zm-15 240h-136c-8.271 0-15-6.729-15-15s6.729-15 15-15h136z"/></g></svg>

<?xml version="1.0" encoding="UTF-8" standalone="no"?><svg xmlns:android="http://schemas.android.com/apk/res/android" height="512" width="512" xmlns="http://www.w3.org/2000/svg">
  <path d="M406,180h-15v-32.58c17.459,-6.192 30,-22.865 30,-42.42V45c0,-8.284 -6.716,-15 -15,-15h-60c-8.284,0 -15,6.716 -15,15v60c0,19.555 12.541,36.228 30,42.42V180h-60v-45c0,-11.517 -4.354,-22.032 -11.495,-30C296.646,97.032 301,86.517 301,75c0,-6.178 -1.765,-17.434 -17.025,-43.74c-7.708,-13.288 -15.313,-24.322 -15.633,-24.785C265.541,2.42 260.928,0 256,0c-4.928,0 -9.541,2.42 -12.342,6.475c-0.32,0.463 -7.925,11.497 -15.633,24.785C212.765,57.566 211,68.822 211,75c0,11.517 4.354,22.032 11.495,30C215.354,112.968 211,123.483 211,135v45h-61v-32.58c17.459,-6.192 30,-22.865 30,-42.42V45c0,-8.284 -6.716,-15 -15,-15h-60c-8.284,0 -15,6.716 -15,15v60c0,19.555 12.541,36.228 30,42.42V180h-15c-24.813,0 -45,20.187 -45,45s20.187,45 45,45h136v212h-15c-8.284,0 -15,6.716 -15,15s6.716,15 15,15h60c8.284,0 15,-6.716 15,-15s-6.716,-15 -15,-15h-15V270h135c24.813,0 45,-20.187 45,-45S430.813,180 406,180zM361,60h30v45c0,8.271 -6.729,15 -15,15s-15,-6.729 -15,-15V60zM256,42.806c8.635,14.55 14.872,27.615 15,32.206C270.994,83.277 264.267,90 256,90c-8.271,0 -15,-6.729 -15,-14.982C241.122,70.433 247.361,57.362 256,42.806zM241,135c0,-8.271 6.729,-15 15,-15s15,6.729 15,15v45h-30V135zM120,60h30v45c0,8.271 -6.729,15 -15,15s-15,-6.729 -15,-15V60zM406,240H105c-8.271,0 -15,-6.729 -15,-15s6.729,-15 15,-15c9.709,0 284.61,0 301,0c8.271,0 15,6.729 15,15S414.271,240 406,240z" fill="#FFFFFF"/>
  <path d="M165,300H30V135c0,-8.284 -6.716,-15 -15,-15s-15,6.716 -15,15c0,22.991 0,348.982 0,362c0,8.284 6.716,15 15,15s15,-6.716 15,-15V390h120v107c0,8.284 6.716,15 15,15s15,-6.716 15,-15V387.42c17.459,-6.192 30,-22.865 30,-42.42C210,320.187 189.813,300 165,300zM165,360H30v-30h135c8.271,0 15,6.729 15,15S173.271,360 165,360z" fill="#FFFFFF"/>
  <path d="M497,120c-8.284,0 -15,6.716 -15,15v165H346c-24.813,0 -45,20.187 -45,45c0,19.555 12.541,36.228 30,42.42V497c0,8.284 6.716,15 15,15s15,-6.716 15,-15V390h121v107c0,8.284 6.716,15 15,15s15,-6.716 15,-15c0,-15.835 0,-336.78 0,-362C512,126.716 505.284,120 497,120zM482,360H346c-8.271,0 -15,-6.729 -15,-15s6.729,-15 15,-15h136V360z" fill="#FFFFFF"/>
</svg>
